!!!OTL: Guter Rath fuer Liebesleute
!!!ARE: Europa, Mitteleuropa, Deutschland
!!!SCT: A0163
!!!YEM: Copyright 1995, estate of Helmut Schaffrath.
**kern
*ICvox
*Ivox
*M4/2
*k[f#]
*G:
{2g
2g
2g
=1
1dd
1gg
=2
2ffn
2ee
1cc
=3
2r}
{2cc
2ffn
2dd
=4
1ee
1dd
=5
2.gg
4ffn
2ee
2dd
=6
1ee
1dd
=7
2r}
{2gg
2ffn
2ee
=8
1ffn
2dd
2dd
=9
2cc
2b-
1a
=10
2r}
{2g
2b-
2a
=11
2b-
2ffn
2.dd
8cc
8b-
=12
2.cc
4b-
2a
2g
=13
1a
1g
=14
2r}
==
!!!AGN: Romanze, Ballade, Lied
!! Oeglin 1512 No. 3.
!!!ONB: ESAC (Essen Associative Code) Database: ALTDEU
!!!AMT: simple quadruple
!!!AIN: vox
!!!EED: Helmut Schaffrath
!!!EEV: 1.0
*-
